src/pos-icons/axis-y-arrow.svg

<svg height="24" viewBox="0 0 24 24" width="24" xmlns="http://www.w3.org/2000/svg"><path d="m22.5 20.5-5.5 1.46 1.53-2.61-6.53-3.77-9.39 5.42-1-1.73 9.39-5.42v-10.85h2v10.85l6.53 3.76 1.47-2.58z"/></svg>

<?xml version="1.0" encoding="UTF-8"?><!DOCTYPE svg PUBLIC "-//W3C//DTD SVG 1.1//EN" "http://www.w3.org/Graphics/SVG/1.1/DTD/svg11.dtd"><svg xmlns="http://www.w3.org/2000/svg" xmlns:xlink="http://www.w3.org/1999/xlink" version="1.1" id="mdi-axis-y-arrow" width="24" height="24" viewBox="0 0 24 24"><path d="M22.5,20.5L17,21.96L18.53,19.35L12,15.58L2.61,21L1.61,19.27L11,13.85V3H13V13.85L19.53,17.61L21,15.03L22.5,20.5Z" /></svg>
